X:1
T:The Triumphs of Faith
T:The Triumphs of Faith
T:William James Kirkpatrick
T:Henry Barnett Beegle (1818-1895)
T:Public Domain Courtesy of the Cyber Hymnal™
T:Public Domain Courtesy of the Cyber Hymnal™
C:William James Kirkpatrick
Z:Public Domain
Z:Courtesy of the Cyber Hymnal™
%%score ( 1 2 ) ( 3 4 )
L:1/8
Q:1/4=104
M:4/4
K:C
V:1 treble 
V:2 treble 
V:3 bass 
V:4 bass 
V:1
 ([CE][DF]) | [EG]2 [FG]2 [CG]2 (AB) | [Ec]2 [Fc]2 [Cc]2 (BA) | [EG]2 (GA) [CG]2 [CE]2 | %4
w: 1.~There *|is a faith sub- *|lime and grand, Of *|saints the * crown and|
w: 2.~Faith *|led to A- bel’s *|sac- ri- fice, To *|No- ah’s * pres- er-|
w: 3.~By *|faith their right- eous *|deeds were wrought, And *|king- doms * were sub-|
w: 4.~This *|faith has feared no *|storms of wrath The *|hosts of * sin could|
 [CE]2 [B,D]2 z2 ([CE][DF]) | [EG]2 [FG]2 [CG]2 (AB) | [Ec]2 [Fc]2 [Cc]2 (BA) | %7
w: glo- ry, And *|thou- sands now at *|God’s right hand, Pro- *|
w: va- tion; It *|shone in E- noch’s *|ho- ly life, And *|
w: ject- ed; This *|faith great strength from *|weak- ness brought, And *|
w: wak- en, Has *|braved the sword and *|smiled at death, Tho’ *|
 [EG]2 [Ec]2 [FB]2 [FG]2 | [EG]2 [Ec]2 z2 [CE]2 | [CE]2 [CA]2 [EA]2 [CE]2 | %10
w: claim its won- drous|sto- ry; A|faith that ev- er|
w: wrought a grand trans-|la- tion; It|crowned with glo- ry|
w: from the sword pro-|tect- ed; The|rag- ing li- ons|
w: hat- ed and for-|sak- en; Has|wak- ened songs in|
 [DF]2 [FA]2 [FA]2 [DF]2 | [CE]2 [Gc]2 [FB]2 [FA]2 | [EA]2 [E^G]2 z2 E2 | [EA]2 [EA]2 [EB]3 [EB] | %14
w: works by love, A|liv- ing flame that|burn- eth, That|keeps in view the|
w: A- bram’s brow, Helped|Ja- cob at Pe-|ni- el; Its|worth the He- brew|
w: held in chains, The|power of fire sus-|pend- ed; It|brought the dead to|
w: pris- on walls, All|Sa- tan’s darts de-|fy- ing, Un-|waver- ing stood in|
 [Ec]2 [Ec]2 [Fd]3 [Ad] | (ed) (cB) [EA]2 [E=G]2 | [EB]2 [EA]2 z4 || %17
w: crown a- bove, The|faith * that * o- ver-|com- eth.|
w: child- ren knew, And|Dan- * iel * in his|tri- al.|
w: life a- gain, And|al- * ien * ar- mies|rend- ed.|
w: judg- ment halls, And|filled * with * joy the|dy- ing.|
"^Refrain" [FG]2 [FG][FG] [EG]2 [EG]2 | A2 A2 [EG]3 [EG] | (GA) ([FB][Gc]) [Gd]2 [Gc]2 | %20
w: |||
w: |||
w: O for a faith like|saints of old, As|told * in * sac- red|
w: |||
 [Gc]2 [GB]2 z2 G2 |!<(! [Ge]2 [^Ge]2 [=Ge]2!<)! z [FB] |!>(! [Ec]2 [Ec]2 [^Dc]3!>)! [DA] | %23
w: |||
w: |||
w: sto- ry! ’Twill|make us true, and|pure, and bold, And|
w: |||
 (GA) (Bc) G2 [Ec]2 | !fermata![Fd]4 !fermata![Ec]2 |] %25
w: ||
w: ||
w: take * us * home to|glo- ry.|
w: ||
V:2
 x2 | x6 F2 | x6 F2 | x2 F2 x4 | x8 | x6 F2 | x6 F2 | x8 | x8 | x8 | x8 | x8 | x6 E2 | x8 | x8 | %15
 ^G2 G2 x4 | x8 || x8 | (FC) (D^D) x4 | F2 x6 | x6 G2 | x8 | x8 | GABc G2 x2 | x6 |] %25
V:3
 [C,G,]2 | [C,C]2 [D,B,]2 [E,C]2 [D,G,]2 | [C,G,]2 [F,A,]2 [E,G,]2 [F,C]2 | %3
 [C,C]2 [D,B,]2 [E,C]2 [C,G,]2 | [G,,G,]2 [G,,G,]2 z2 [C,G,]2 | [C,C]2 [D,B,]2 [E,C]2 [D,G,]2 | %6
 [C,G,]2 [F,A,]2 [E,G,]2 [F,C]2 | [G,C]2 [G,C]2 [G,D]2 [G,B,]2 | [C,C]2 [C,G,]2 z2 [C,G,]2 | %9
 [A,,A,]2 [A,,E,]2 [C,A,]2 [A,,A,]2 | [D,A,]2 [D,A,]2 [G,,B,]2 [G,,B,]2 | %11
 [C,G,]2 [C,E]2 [D,D]2 [D,D]2 | [E,C]2 [E,B,]2 z2 E,2 | [A,,C]2 [C,A,]2 [E,^G,]3 [E,G,] | %14
 A,2 A,2 [F,A,]3 [F,A,] | [E,B,]2 [E,D]2 [E,C]2 [E,B,]2 | [A,,D]2 [A,,C]2 z4 || %17
 [B,,D]2 [B,,D][B,,D] [C,C]2 [C,C]2 | [F,C]2 [F,C]2 [C,C]3 [C,C] | (B,C) (DE) [G,F]2 [G,E]2 | %20
 [G,E]2 [G,D]2 z2 G,2 | C2 [B,D]2 [A,^C]2 z [^G,D] | [A,C]2 [G,_B,]2 [^F,A,]3 [F,C] | %23
 G,A,B,C G,2 [G,C]2 | !fermata![G,B,]4 !fermata![C,G,C]2 |] %25
V:4
 x2 | x8 | x8 | x8 | x8 | x8 | x8 | x8 | x8 | x8 | x8 | x8 | x6 E,2 | x8 | A,2 A,2 x4 | x8 | x8 || %17
 x8 | x8 | G,2 G,2 x4 | x6 G,2 | ^C2 x6 | x8 | (G,A,) (B,C) G,2 x2 | x6 |] %25

